packages/ffe-icons/icons/filled/md/mosque.svg

<svg xmlns="http://www.w3.org/2000/svg" height="24" viewBox="0 -960 960 960" width="24"><path d="M301.848-624.153q-24.847 0-38.347-13.5-13.5-13.501-13.5-38.347 0-37.307 17.846-69.192 17.846-31.884 47.923-52.346l130.385-87.846q14.999-10.538 33.845-10.538 18.846 0 33.845 10.538l130.385 87.846q30.077 20.462 47.923 52.346 17.846 31.885 17.846 69.192 0 24.846-13.5 38.347-13.5 13.5-38.347 13.5H301.848ZM50.001-189.999V-616.77q-18-9.846-29-25.999Q10-658.923 10-680q0-20.307 19.769-48.499Q49.539-756.691 80-785.768q30.461 29.077 50.23 57.269 19.769 28.192 19.769 48.499 0 21.077-11 37.231-11 16.153-29 25.999v186.771h100.002V-520q0-24.231 15.807-44.346 15.808-20.115 43.116-24.423h422.152q27.308 4.308 43.116 24.423 15.807 20.115 15.807 44.346v90.001h100.002V-616.77q-18-9.846-29-25.999-11-16.154-11-37.231 0-20.307 19.769-48.499 19.769-28.192 50.23-57.269 30.461 29.077 50.23 57.269 19.769 28.192 19.769 48.499 0 21.077-11 37.231-11 16.153-29 25.999v426.771q0 24.538-17.73 42.268t-42.268 17.73H590.769q-15.462 0-25.808-10.346t-10.346-25.807V-280q0-30.692-21.961-52.654-21.962-21.961-52.654-21.961-30.692 0-52.654 21.961-21.961 21.962-21.961 52.654v113.846q0 15.461-10.346 25.807-10.346 10.346-25.808 10.346H109.999q-24.538 0-42.268-17.73t-17.73-42.268Z"/></svg>

<svg xmlns="http://www.w3.org/2000/svg" height="24" viewBox="0 -960 960 960" width="24"><path d="M301.85-624.15q-24.85 0-38.35-13.5T250-676q0-37.31 17.85-69.19 17.84-31.89 47.92-52.35l130.38-87.84q15-10.54 33.85-10.54t33.85 10.54l130.38 87.84q30.08 20.46 47.92 52.35Q710-713.31 710-676q0 24.85-13.5 38.35t-38.35 13.5h-356.3ZM50-190v-426.77q-18-9.85-29-26T10-680q0-20.31 19.77-48.5T80-785.77q30.46 29.08 50.23 57.27Q150-700.31 150-680q0 21.08-11 37.23t-29 26V-430h100v-90q0-24.23 15.81-44.35 15.81-20.11 43.11-24.42h422.16q27.3 4.31 43.11 24.42Q750-544.23 750-520v90h100v-186.77q-18-9.85-29-26T810-680q0-20.31 19.77-48.5T880-785.77q30.46 29.08 50.23 57.27Q950-700.31 950-680q0 21.08-11 37.23t-29 26V-190q0 24.54-17.73 42.27Q874.54-130 850-130H590.77q-15.46 0-25.81-10.35-10.35-10.34-10.35-25.8V-280q0-30.69-21.96-52.65-21.96-21.96-52.65-21.96-30.69 0-52.65 21.96-21.96 21.96-21.96 52.65v113.85q0 15.46-10.35 25.8Q384.69-130 369.23-130H110q-24.54 0-42.27-17.73Q50-165.46 50-190Z"/></svg>
